Origami/48x48/apps/pia-manager.svg

<svg width="48" height="48" version="1.1" viewBox="0 0 48 48" xmlns="http://www.w3.org/2000/svg">
 <path d="m13 19h22 2v24c0 1.108-0.892 2-2 2h-7l-3-4h-2l-3 4h-7c-1.108 0-2-0.892-2-2v-24h2z" style="opacity:.2"/>
 <path d="m8 19c-1.108 0-2 0.892-2 2v14c0 1.108 0.892 2 2 2h4c1.108 0 2-0.892 2-2v-14c0-1.108-0.892-2-2-2h-4zm28 0c-1.108 0-2 0.892-2 2v14c0 1.108 0.892 2 2 2h4c1.108 0 2-0.892 2-2v-14c0-1.108-0.892-2-2-2h-4z" style="opacity:.2"/>
 <rect x="6" y="18" width="8" height="18" rx="2" ry="2" style="fill:#358334"/>
 <rect x="34" y="18" width="8" height="18" rx="2" ry="2" style="fill:#358334"/>
 <path d="m13 18h22 2v24c0 1.108-0.892 2-2 2h-7l-3-4h-2l-3 4h-7c-1.108 0-2-0.892-2-2v-24h2z" style="fill:#50b24e"/>
 <path d="m8 18c-1.108 0-2 0.892-2 2v1c0-1.108 0.892-2 2-2h4c1.108 0 2 0.892 2 2v-1c0-1.108-0.892-2-2-2h-4zm28 0c-1.108 0-2 0.892-2 2v1c0-1.108 0.892-2 2-2h4c1.108 0 2 0.892 2 2v-1c0-1.108-0.892-2-2-2h-4z" style="fill:#ffffff;opacity:.1"/>
 <circle cx="24" cy="17" r="13" style="fill:#50b24e"/>
 <path d="m24 10a8 8 0 0 0 -8 8 8 8 0 0 0 0.07227 1h15.857422a8 8 0 0 0 0.070308 -1 8 8 0 0 0 -8 -8z" style="opacity:.2"/>
 <path d="m24 9a8 8 0 0 0 -8 8 8 8 0 0 0 0.072266 1h15.857422a8 8 0 0 0 0.070312 -1 8 8 0 0 0 -8 -8z" style="fill:#ffffff"/>
 <circle cx="21" cy="14" r="2" style="fill:#3f3f3f"/>
 <circle cx="27" cy="14" r="2" style="fill:#3f3f3f"/>
 <path class="ColorScheme-Text" d="m24 22c-2.216 0-4 1.8216-4 4.0625v1.9375h-1c-0.554 0-1 0.446-1 1v6c0 0.554 0.446 1 1 1h10c0.554 0 1-0.446 1-1v-6c0-0.554-0.446-1-1-1h-1v-1.9375c0-2.24-1.784-4.0625-4-4.0625zm0 2c1.108 0 2 0.892 2 2v2h-4v-2c0-1.108 0.892-2 2-2z" style="opacity:.2"/>
 <path class="ColorScheme-Text" d="m24 21c-2.216 0-4 1.8216-4 4.0625v1.9375h-1c-0.554 0-1 0.446-1 1v6c0 0.554 0.446 1 1 1h10c0.554 0 1-0.446 1-1v-6c0-0.554-0.446-1-1-1h-1v-1.9375c0-2.24-1.784-4.0625-4-4.0625zm0 2c1.108 0 2 0.892 2 2v2h-4v-2c0-1.108 0.892-2 2-2z" style="fill:#ffffff"/>
 <path d="m24 4a13 13 0 0 0 -13 13 13 13 0 0 0 0.019531 0.457031 13 13 0 0 1 12.980469 -12.457031 13 13 0 0 1 12.974609 12.503906 13 13 0 0 0 0.025391 -0.503906 13 13 0 0 0 -13 -13zm-13 14v1h0.042969a13 13 0 0 1 -0.042969 -1zm26 0a13 13 0 0 1 -0.048828 1h0.048828v-1z" style="fill:#ffffff;opacity:.2"/>
</svg>

<svg xmlns="http://www.w3.org/2000/svg" width="48" height="48" version="1.1" viewBox="0 0 48 48">
 <path style="opacity:0.2" d="m 13,19 22,0 c 1.108,0 2,0 2,0 l 0,24 c 0,1.108 -0.892,2 -2,2 l -7,0 -3,-4 -2,0 -3,4 -7,0 c -1.108,0 -2,-0.892 -2,-2 l 0,-24 c 0,0 0.892,0 2,0 z"/>
 <path style="opacity:0.2" d="m 8,19 c -1.108,0 -2,0.892 -2,2 l 0,14 c 0,1.108 0.892,2 2,2 l 4,0 c 1.108,0 2,-0.892 2,-2 l 0,-14 c 0,-1.108 -0.892,-2 -2,-2 l -4,0 z m 28,0 c -1.108,0 -2,0.892 -2,2 l 0,14 c 0,1.108 0.892,2 2,2 l 4,0 c 1.108,0 2,-0.892 2,-2 l 0,-14 c 0,-1.108 -0.892,-2 -2,-2 l -4,0 z"/>
 <rect style="fill:#358334" width="8" height="18" x="6" y="18" rx="2" ry="2"/>
 <rect style="fill:#358334" width="8" height="18" x="34" y="18" rx="2" ry="2"/>
 <path style="fill:#50b24e" d="m 13,18 22,0 c 1.108,0 2,0 2,0 l 0,24 c 0,1.108 -0.892,2 -2,2 l -7,0 -3,-4 -2,0 -3,4 -7,0 c -1.108,0 -2,-0.892 -2,-2 l 0,-24 c 0,0 0.892,0 2,0 z"/>
 <path style="opacity:0.1;fill:#ffffff" d="M 8 18 C 6.892 18 6 18.892 6 20 L 6 21 C 6 19.892 6.892 19 8 19 L 12 19 C 13.108 19 14 19.892 14 21 L 14 20 C 14 18.892 13.108 18 12 18 L 8 18 z M 36 18 C 34.892 18 34 18.892 34 20 L 34 21 C 34 19.892 34.892 19 36 19 L 40 19 C 41.108 19 42 19.892 42 21 L 42 20 C 42 18.892 41.108 18 40 18 L 36 18 z"/>
 <circle style="fill:#50b24e" cx="24" cy="17" r="13"/>
 <path style="opacity:0.2" d="m 24,10 a 8,8 0 0 0 -8,8 8,8 0 0 0 0.07227,1 l 15.857422,0 A 8,8 0 0 0 32,18 8,8 0 0 0 24,10 Z"/>
 <path style="fill:#ffffff" d="M 24 9 A 8 8 0 0 0 16 17 A 8 8 0 0 0 16.072266 18 L 31.929688 18 A 8 8 0 0 0 32 17 A 8 8 0 0 0 24 9 z"/>
 <circle style="fill:#3f3f3f" cx="21" cy="14" r="2"/>
 <circle style="fill:#3f3f3f" cx="27" cy="14" r="2"/>
 <path style="opacity:0.2" class="ColorScheme-Text" d="m 24,22 c -2.216,0 -4,1.8216 -4,4.0625 L 20,28 19,28 c -0.554,0 -1,0.446 -1,1 l 0,6 c 0,0.554 0.446,1 1,1 l 10,0 c 0.554,0 1,-0.446 1,-1 l 0,-6 c 0,-0.554 -0.446,-1 -1,-1 l -1,0 0,-1.9375 C 28,23.8225 26.216,22 24,22 Z m 0,2 c 1.108,0 2,0.892 2,2 l 0,2 -4,0 0,-2 c 0,-1.108 0.892,-2 2,-2 z"/>
 <path style="fill:#ffffff" class="ColorScheme-Text" d="m 24,21 c -2.216,0 -4,1.8216 -4,4.0625 L 20,27 19,27 c -0.554,0 -1,0.446 -1,1 l 0,6 c 0,0.554 0.446,1 1,1 l 10,0 c 0.554,0 1,-0.446 1,-1 l 0,-6 c 0,-0.554 -0.446,-1 -1,-1 l -1,0 0,-1.9375 C 28,22.8225 26.216,21 24,21 Z m 0,2 c 1.108,0 2,0.892 2,2 l 0,2 -4,0 0,-2 c 0,-1.108 0.892,-2 2,-2 z"/>
 <path style="opacity:0.2;fill:#ffffff" d="M 24 4 A 13 13 0 0 0 11 17 A 13 13 0 0 0 11.019531 17.457031 A 13 13 0 0 1 24 5 A 13 13 0 0 1 36.974609 17.503906 A 13 13 0 0 0 37 17 A 13 13 0 0 0 24 4 z M 11 18 L 11 19 L 11.042969 19 A 13 13 0 0 1 11 18 z M 37 18 A 13 13 0 0 1 36.951172 19 L 37 19 L 37 18 z"/>
</svg>
